X:9
T:Pymtheg Hanner Crown - Fifteen Half-Crowns
M:6/8
L:1/8
Q:300
C:Rhodri Smith
R:March
K:G
EBB EBB | FAA FAA | GAB cBA | GAG F3 | EBB EBB | FAA FAA | GAB cBA | GAF E3 :||
|: B3 ABA | GAG FGA | B3 ABA | GAB cBA | B3 ABA | GAG FGA | GAB cB A|
GAF E3 :||: BEE BEE | AGF FGA | BEE BEE | ABc d3 | BEE BEE | AFF AF F|
GAB cBA | GAF E3 :||
